X:1
T:[ID 3-1]
T:[ID 3-1]
T:Bezeichnung standardisiert: Menuet [mit Trio] Menuet [mit Trio] Nro [ueberschrieben] Primo
T:Urheber unbekannt Erstbeleg: 1767 (Datum in der schriftlichen Quelle) Datum in der hier transkribierten schriftlichen Quelle: 1776 - 1791
C:Urheber unbekannt
C:Erstbeleg: 1767 (Datum in der schriftlichen Quelle)
C:Datum in der hier transkribierten schriftlichen Quelle: 1776 - 1791
%%score ( 1 2 ) 3
L:1/8
M:3/4
K:D
V:1 treble nm="Primo"
V:2 treble 
V:3 treble nm="Secondo"
V:1
 d4 DE | F2 E2 D2 | e4 A,B, | C2 B,2 A,2 | (af)(fd) d2 | (af)(fd) d2 | ef g2 f2 |{g} f4 e2 :: %8
 e3 fef | e2 f2 g2 | f3 gfg | f2 g2 a2 | (af)(fd) d2 | affd d2 | (3gfe d2 c2 | d4 D2 :| %16
[M:3/4]"^Trio" !fermata!F3 BAG | FG A4 | (3BAG F2 E2 | (3FED D4 | (3FGA A4 | (3EFG G4 | %22
 (3ABc B2 A2 |{G} F2 E4 :: E2 (3GFE F2 | E2 (3cde d2 | EF G2 F2 |{F} E6 | A3 BAG | FG A4 | %30
 (3BAG F2 E2 | E2 D4 :| %32
V:2
 x6 | x6 | x6 | x6 | x6 | x6 | x6 | x6 :: x6 | x6 | x6 | x6 | x6 | x6 | x6 | x6 :|[M:3/4] x6 | x6 | %18
 x6 | x6 | x6 | x6 | (3FGA G2 F2 | x6 :: x6 | x6 | x6 | x6 | x6 | x6 | x6 | x6 :| %32
V:3
 !fermata!d4 DE | F2 E2 D2 | e4 A,B, | C2 B,2 A,2 | (fd)(dB) B2 | (fd)(dB) B2 | cd e2 d2 | %7
{e} d4 c2 :: c3 dcd | c2 d2 e2 | d3 ede | d2 e2 f2 | (fd)(dB) B2 | (fd)(dB) B2 | eG F2 E2 | F6 :| %16
[M:3/4] F3 GFE | DE F4 | (3GFE D2 C2 | D2 D4 | (3DEF G4 | (3CDE E4 | (3DEF E2 D2 |{E} D6 :: %24
 E2 (3cde d2 | E2 (3GFE F2 | EF"^[sic]" F2"^[sic]" E2 |{D} C6 | F3 GFE | DE F4 | (3GFE D2 E2 | %31
 F6 :| %32

